swiss/communes/0034.svg

<?xml version="1.0" encoding="UTF-8" standalone="no"?>
<!-- Created with Inkscape (http://www.inkscape.org/) -->
<svg
   xmlns:svg="http://www.w3.org/2000/svg"
   xmlns="http://www.w3.org/2000/svg"
   version="1.0"
   width="219.43166"
   height="257.03003"
   id="svg2780">
  <defs
     id="defs2782" />
  <g
     transform="translate(-18.215281,-796.7135)"
     id="layer1">
    <path
       d="M 19.215281,797.7135 L 23.168578,963.77951 C 25.992356,1082.3982 229.86984,1082.3982 232.69363,963.77951 L 236.64693,797.7135 L 19.215281,797.7135 z"
       id="path3282"
       style="fill:#2163c6;fill-opacity:1;fill-rule:evenodd;stroke:#000000;stroke-width:2;stroke-linecap:butt;stroke-miterlimit:4;stroke-dashoffset:0;stroke-opacity:1" />
    <path
       d="M 138.69044,866.32322 C 134.79234,861.42442 132.42173,855.18874 132.42173,852.10094 L 132.42172,841.64016 L 142.8825,841.64017 C 145.97031,841.64017 152.20598,844.01078 157.10478,847.90888 L 157.10479,824.14001 C 152.20598,828.03811 145.9703,830.40873 142.8825,830.40873 L 132.42172,830.40872 L 132.42172,819.94793 C 132.42172,816.86014 134.79234,810.62446 138.69044,805.72566 L 114.92156,805.72566 C 118.81966,810.62445 121.19028,816.86014 121.19028,819.94793 L 121.19028,830.40872 L 110.7295,830.40872 C 107.64169,830.40872 101.40602,828.03809 96.507224,824.14 L 96.507224,847.90888 C 101.40602,844.01078 107.6417,841.64016 110.7295,841.64016 L 121.19028,841.64016 L 121.19028,852.10094 C 121.19028,855.18875 118.81966,861.42442 114.92156,866.32322 L 138.69044,866.32322 z"
       id="path4449"
       style="color:#000000;fill:#ffffff;fill-opacity:1;fill-rule:evenodd;stroke:#000000;stroke-width:1.00000012px;stroke-linecap:butt;stroke-linejoin:round;marker:none;marker-start:none;marker-mid:none;marker-end:none;stroke-miterlimit:4;stroke-dasharray:none;stroke-dashoffset:0;stroke-opacity:1;visibility:visible;display:inline;overflow:visible;enable-background:accumulate" />
    <g
       id="g4875">
      <path
         d="M 77.199756,899.61058 C 128.85632,829.04073 225.40581,912.7131 125.01324,981.49604 C 123.88832,978.72804 120.62034,970.97746 118.5265,967.62504 C 138.38587,932.27851 119.71045,887.4546 77.199756,899.61058 z"
         id="path3736"
         style="opacity:1;color:#000000;fill:#ffffff;fill-opacity:1;fill-rule:evenodd;stroke:#000000;stroke-width:1.00000012px;stroke-linecap:butt;stroke-linejoin:round;marker:none;marker-start:none;marker-mid:none;marker-end:none;stroke-miterlimit:4;stroke-dasharray:none;stroke-dashoffset:0;stroke-opacity:1;visibility:visible;display:inline;overflow:visible;enable-background:accumulate" />
      <path
         d="M 122.03125,177.71875 L 119.46875,230.3125 C 119.31462,235.3073 123.47156,239.34375 128.46875,239.34375 C 133.46594,239.34374 137.65413,235.3074 137.5,230.3125 L 134.96875,177.71875 L 122.03125,177.71875 z"
         transform="translate(0,804.33069)"
         id="rect4443"
         style="color:#000000;fill:#fddc00;fill-opacity:1;fill-rule:evenodd;stroke:#000000;stroke-width:1.00000012px;stroke-linecap:butt;stroke-linejoin:miter;marker:none;marker-start:none;marker-mid:none;marker-end:none;stroke-miterlimit:4;stroke-dashoffset:0;stroke-opacity:1;visibility:visible;display:inline;overflow:visible;enable-background:accumulate" />
      <rect
         width="20.199186"
         height="8.2292976"
         ry="4.1146488"
         x="118.20264"
         y="977.55029"
         id="rect4867"
         style="opacity:1;color:#000000;fill:#fddc00;fill-opacity:1;fill-rule:evenodd;stroke:#000000;stroke-width:1.00000012px;stroke-linecap:butt;stroke-linejoin:miter;marker:none;marker-start:none;marker-mid:none;marker-end:none;stroke-miterlimit:4;stroke-dasharray:none;stroke-dashoffset:0;stroke-opacity:1;visibility:visible;display:inline;overflow:visible;enable-background:accumulate" />
    </g>
  </g>
</svg>

<svg xmlns="http://www.w3.org/2000/svg" version="1.0" width="219.432" height="257.03"><path d="M19.215 797.713 23.17 963.78c2.823 118.618 206.7 118.618 209.525 0l3.953-166.067H19.215z" style="fill:#2163c6;fill-opacity:1;fill-rule:evenodd;stroke:#000;stroke-width:2;stroke-linecap:butt;stroke-miterlimit:4;stroke-dashoffset:0;stroke-opacity:1" transform="translate(-18.215 -796.713)"/><path d="M138.69 866.323c-3.898-4.899-6.268-11.134-6.268-14.222v-10.46h10.46c3.088 0 9.324 2.37 14.223 6.268V824.14c-4.899 3.898-11.135 6.269-14.222 6.269h-10.461v-10.461c0-3.088 2.37-9.324 6.268-14.222h-23.768c3.898 4.898 6.268 11.134 6.268 14.222v10.46h-10.46c-3.088 0-9.324-2.37-14.223-6.268v23.769c4.899-3.898 11.135-6.269 14.222-6.269h10.461v10.46c0 3.089-2.37 9.324-6.268 14.223h23.768z" style="color:#000;fill:#fff;fill-opacity:1;fill-rule:evenodd;stroke:#000;stroke-width:1.00000012px;stroke-linecap:butt;stroke-linejoin:round;marker:none;marker-start:none;marker-mid:none;marker-end:none;stroke-miterlimit:4;stroke-dasharray:none;stroke-dashoffset:0;stroke-opacity:1;visibility:visible;display:inline;overflow:visible;enable-background:accumulate" transform="translate(-18.215 -796.713)"/><g transform="translate(-18.215 -796.713)"><path d="M77.2 899.61c51.656-70.57 148.206 13.103 47.813 81.886-1.125-2.768-4.393-10.519-6.487-13.871 19.86-35.346 1.184-80.17-41.326-68.014z" style="opacity:1;color:#000;fill:#fff;fill-opacity:1;fill-rule:evenodd;stroke:#000;stroke-width:1.00000012px;stroke-linecap:butt;stroke-linejoin:round;marker:none;marker-start:none;marker-mid:none;marker-end:none;stroke-miterlimit:4;stroke-dasharray:none;stroke-dashoffset:0;stroke-opacity:1;visibility:visible;display:inline;overflow:visible;enable-background:accumulate"/><path d="m122.031 177.719-2.562 52.594c-.154 4.994 4.003 9.03 9 9.03s9.185-4.036 9.031-9.03l-2.531-52.594H122.03z" transform="translate(0 804.33)" style="color:#000;fill:#fddc00;fill-opacity:1;fill-rule:evenodd;stroke:#000;stroke-width:1.00000012px;stroke-linecap:butt;stroke-linejoin:miter;marker:none;marker-start:none;marker-mid:none;marker-end:none;stroke-miterlimit:4;stroke-dashoffset:0;stroke-opacity:1;visibility:visible;display:inline;overflow:visible;enable-background:accumulate"/><rect width="20.199" height="8.229" ry="4.115" x="118.203" y="977.55" style="opacity:1;color:#000;fill:#fddc00;fill-opacity:1;fill-rule:evenodd;stroke:#000;stroke-width:1.00000012px;stroke-linecap:butt;stroke-linejoin:miter;marker:none;marker-start:none;marker-mid:none;marker-end:none;stroke-miterlimit:4;stroke-dasharray:none;stroke-dashoffset:0;stroke-opacity:1;visibility:visible;display:inline;overflow:visible;enable-background:accumulate"/></g></svg>
